X:1
T:Joy of Springtime
B:Singing Together, Spring 1982, BBC Publications
F:http://www.folkinfo.org/songs
M:4/4     %Meter
L:1/8     %
K:G
E2 E2 E2 B2 |A2 G2 F2 E2 |
w:Fro-sty days are gone for e-ver,
w:Snow-drifts in-to lakes are melt-ed,
G2 FE A2 GF |GE EE E2 z2 :|
w:See how the sun-light is burst-ing from the sky,
w:Watch out for car wheels that splash you go-ing by
B2 B2 B2 d2 |B2 B2 B2 d2 |e2 B2 B2 G2 |A2 G2 F2 E2 |
w:No more mush-ing, trudge and slush-ing, Joy of spring-time bree-zes rush-ing.
E3/2F/ GE EE E2 |F3/2G/ AF FF F2 |B2 AG A2 GF |GE EE E2 z2 |]
w:La, la, la, la, la, la, la, La, la, la, la, la, la, la. La, la, la, la, la, la, la, la, la, la la.
